X: 1
T: You'd Better Be Nice    [Eb]
C: Wm Tracey and Jack Stern
R: polka
Z: 2018 John Chambers <jc:trillian.mit.edu>
M: 2/4
L: 1/8
K: Eb
%%continueall 1
| z4 | z4 [| GG BB | cc ee | dB B2- | BG A=A |
Bc _AB | G2 F2 | B4- | B2 z2 | GG BB | cc ee |
dB B2- | B=A Bc | dF GB | c2 d2 | B4- | Bz z2 |
AG FG | Ac ec | G4 | F4 | FG =Ac | d2 d2 | B4- | Bz zB |]
GA =AB- | B_A G2 | B4- | B c2 B | =AB =Bc- | c+B =A2 | c4- | cz z2 |
de cd | Bc AB | G F2 E- | E3 B | ef de | cd ec | d c2 B- | Bz zA |
GA =AB- | B A2 G | B4- | B c2 B | =AB =Bc- | cB =A2 | c4 | d3 d |
ef de | cd BG | A c2 F- | F3 B | ef de | cd BG | A c2 F- | F3 F |
GA =AB- | B c2 B | =AB =Bc- | c d2 e | fc ed- | dc B2 |1 e2 z2 | z4 :|2 e4- | ez z2 |]
